X:199
T: NUN ADE MEIN SCHOENES LEBEN
N: E0781
O: Europa, Mitteleuropa, Deutschland, Gransee, Roennebeck
R: Abschieds - Lied, Liebe
M: 4/4
L: 1/8
K: G
 | B3cB2A2 | G3AG2F2 |
c3dB2d2 | A2d2B2z2 |
B3cd3d | c2cdB2B2 |
A2ABc3A | A2ABG2z2

